palm-tree.svg

<svg fill="currentColor" viewBox="0 0 24 24"><path d="M12 9c1.59 7.61-2 13-2 13h3c1.88-5.8 1-9.91.5-12m2.16-2.84c.17.21.34.43.47.66a7.1 7.1 0 0 1-.63 8.44 7.11 7.11 0 0 0-.55-6.49c-.08-.13-.17-.24-.25-.36a7.1 7.1 0 0 0-2.16-1.98 7.13 7.13 0 0 0-4.96 6.79c0 .74.11 1.45.31 2.11a7.07 7.07 0 0 1-1.33-4.14c0-2.35 1.14-4.43 2.89-5.73C8 6.35 6.46 6.67 5.12 7.5q-.93.615-1.62 1.41C4.05 7.58 5 6.39 6.3 5.57c1.5-.94 3.2-1.25 4.84-1.01C10.73 4 10.23 3.47 9.63 3c-.58-.42-1.21-.76-1.87-1 1.44.04 2.88.5 4.11 1.43.63.47 1.13 1.04 1.53 1.64.1 0 .19-.01.29-.01 3.2 0 5.91 2.11 6.81 5.02a7.07 7.07 0 0 0-4.84-2.92"/></svg>

<svg  viewBox="0 0 24 24" fill="currentColor"><path  d="M12 9C13.59 16.61 10 22 10 22H13C14.88 16.2 14 12.09 13.5 10M15.66 7.16C15.83 7.37 16 7.59 16.13 7.82C17.84 10.53 17.5 13.95 15.5 16.26C16.34 14.21 16.22 11.79 14.95 9.77C14.87 9.64 14.78 9.53 14.7 9.41C14.11 8.58 13.36 7.92 12.54 7.43C9.66 8.35 7.58 11.04 7.58 14.22C7.58 14.96 7.69 15.67 7.89 16.33C7.05 15.16 6.56 13.73 6.56 12.19C6.56 9.84 7.7 7.76 9.45 6.46C8 6.35 6.46 6.67 5.12 7.5C4.5 7.91 3.96 8.38 3.5 8.91C4.05 7.58 5 6.39 6.3 5.57C7.8 4.63 9.5 4.32 11.14 4.56C10.73 4 10.23 3.47 9.63 3C9.05 2.58 8.42 2.24 7.76 2C9.2 2.04 10.64 2.5 11.87 3.43C12.5 3.9 13 4.47 13.4 5.07C13.5 5.07 13.59 5.06 13.69 5.06C16.89 5.06 19.6 7.17 20.5 10.08C19.38 8.5 17.65 7.43 15.66 7.16Z"/></svg>
